X:5596
T:Robinsons Reel
O:england
M:2/2
L:1/8
S:Armitt MS
N:Photocopy has note "'There is a clearer copy of Robinson's Reel in the
N:other (modern) MSS'.  This one is almost illegible after bar 4
K:A major
Aaae cAAc|Bbba geeg|(ag)ae (fe)(dc)|dfedA A2|cAGA EGDG|(GABc) dfed|cAGF
EGDG|(df)ed  cA A2:||
